workspaces/client/public/images/svg/services-accounting.svg

<svg width="41" height="40" viewBox="0 0 41 40" fill="none" xmlns="http://www.w3.org/2000/svg">
<path fill-rule="evenodd" clip-rule="evenodd" d="M14.25 8.33333C14.25 5.80203 16.302 3.75 18.8333 3.75H22.1667C24.698 3.75 26.75 5.80203 26.75 8.33333V11.6667C26.75 12.357 26.1904 12.9167 25.5 12.9167H15.5C14.8096 12.9167 14.25 12.357 14.25 11.6667V8.33333ZM18.8333 6.25C17.6827 6.25 16.75 7.18274 16.75 8.33333V10.4167H24.25V8.33333C24.25 7.18274 23.3173 6.25 22.1667 6.25H18.8333Z" fill="white"/>
<path fill-rule="evenodd" clip-rule="evenodd" d="M11.3115 8.21461C11.5223 8.1136 11.7562 8.27438 11.7558 8.50804L11.75 11.6667C11.75 13.7377 13.4289 15.4167 15.5 15.4167H25.5C27.5711 15.4167 29.25 13.7377 29.25 11.6667V8.5071C29.25 8.27369 29.4838 8.11334 29.6942 8.21424C31.6694 9.16116 33 11.178 33 13.4758V30.9581C33 33.8094 30.8761 36.2142 28.0467 36.5666C23.0349 37.1907 17.9651 37.1907 12.9533 36.5666C10.1239 36.2142 8 33.8094 8 30.9581V13.4758C8 11.1783 9.33602 9.16169 11.3115 8.21461ZM25.5 20C26.1904 20 26.75 20.5596 26.75 21.25C26.75 21.9404 26.1904 22.5 25.5 22.5H15.5C14.8096 22.5 14.25 21.9404 14.25 21.25C14.25 20.5596 14.8096 20 15.5 20H25.5ZM23.8333 25C24.5237 25 25.0833 25.5596 25.0833 26.25C25.0833 26.9404 24.5237 27.5 23.8333 27.5H15.5C14.8096 27.5 14.25 26.9404 14.25 26.25C14.25 25.5596 14.8096 25 15.5 25H23.8333Z" fill="white"/>
</svg>

<svg xmlns="http://www.w3.org/2000/svg" width="41" height="40" fill="none"><path fill="#fff" fill-rule="evenodd" d="M14.25 8.333a4.583 4.583 0 0 1 4.583-4.583h3.334a4.583 4.583 0 0 1 4.583 4.583v3.334c0 .69-.56 1.25-1.25 1.25h-10c-.69 0-1.25-.56-1.25-1.25zm4.583-2.083c-1.15 0-2.083.933-2.083 2.083v2.084h7.5V8.333c0-1.15-.933-2.083-2.083-2.083z" clip-rule="evenodd"/><path fill="#fff" fill-rule="evenodd" d="M11.312 8.215c.21-.101.444.06.444.293l-.006 3.159a3.75 3.75 0 0 0 3.75 3.75h10a3.75 3.75 0 0 0 3.75-3.75v-3.16c0-.233.234-.394.444-.293A5.83 5.83 0 0 1 33 13.476v17.482a5.65 5.65 0 0 1-4.953 5.609 61 61 0 0 1-15.094 0A5.65 5.65 0 0 1 8 30.958V13.476a5.84 5.84 0 0 1 3.312-5.261M25.5 20a1.25 1.25 0 1 1 0 2.5h-10a1.25 1.25 0 1 1 0-2.5zm-1.667 5a1.25 1.25 0 1 1 0 2.5H15.5a1.25 1.25 0 1 1 0-2.5z" clip-rule="evenodd"/></svg>
